svgs/sharp-light/4.svg

<svg xmlns="http://www.w3.org/2000/svg" viewBox="0 0 384 512"><!--! Font Awesome Pro 6.6.0 by @fontawesome - https://fontawesome.com License - https://fontawesome.com/license (Commercial License) Copyright 2024 Fonticons, Inc. --><path d="M11.1 329.2L149.8 32l35.3 0L50.7 320 288 320l0-176 0-16 32 0 0 16 0 176 48 0 16 0 0 32-16 0-48 0 0 112 0 16-32 0 0-16 0-112L25.6 352 .5 352l10.6-22.8z"/></svg>

<svg xmlns="http://www.w3.org/2000/svg" viewBox="0 0 384 512"><!--! Font Awesome Pro 6.5.2 by @fontawesome - https://fontawesome.com License - https://fontawesome.com/license (Commercial License) Copyright 2024 Fonticons, Inc. --><path d="M11.1 329.2L149.8 32h35.3L50.7 320H288V144 128h32v16V320h48 16v32H368 320V464v16H288V464 352H25.6 .5l10.6-22.8z"/></svg>
